apps/symbolic/system-software-install-symbolic.svg

<?xml version="1.0" encoding="UTF-8" standalone="no"?>
<svg
   xmlns:dc="http://purl.org/dc/elements/1.1/"
   xmlns:cc="http://creativecommons.org/ns#"
   xmlns:rdf="http://www.w3.org/1999/02/22-rdf-syntax-ns#"
   xmlns:svg="http://www.w3.org/2000/svg"
   xmlns="http://www.w3.org/2000/svg"
   xmlns:sodipodi="http://sodipodi.sourceforge.net/DTD/sodipodi-0.dtd"
   xmlns:inkscape="http://www.inkscape.org/namespaces/inkscape"
   version="1.1"
   width="24"
   height="24"
   viewBox="0 0 24 24"
   id="svg2"
   inkscape:version="0.92.1 r15371"
   sodipodi:docname="system-software-install-symbolic.svg">
  <metadata
     id="metadata10">
    <rdf:RDF>
      <cc:Work
         rdf:about="">
        <dc:format>image/svg+xml</dc:format>
        <dc:type
           rdf:resource="http://purl.org/dc/dcmitype/StillImage" />
      </cc:Work>
    </rdf:RDF>
  </metadata>
  <defs
     id="defs8">
    <style
       id="current-color-scheme"
       type="text/css">
      .ColorScheme-Text {
        color:#bebebe;
      }
      </style>
  </defs>
  <sodipodi:namedview
     pagecolor="#ffffff"
     bordercolor="#666666"
     borderopacity="1"
     objecttolerance="10"
     gridtolerance="10"
     guidetolerance="10"
     inkscape:pageopacity="0"
     inkscape:pageshadow="2"
     inkscape:window-width="640"
     inkscape:window-height="480"
     id="namedview6"
     showgrid="false"
     inkscape:zoom="25.291667"
     inkscape:cx="5.0411862"
     inkscape:cy="12"
     inkscape:current-layer="svg2" />
  <path
     style="fill:#bebebe;fill-opacity:1"
     d="M 6 3 C 5.53 3 5.1198436 3.2107813 4.8398438 3.5507812 L 3.4609375 5.2304688 C 3.1709375 5.5704687 3 6 3 6.5 L 3 19 C 3 20.104569 3.8954305 21 5 21 L 19 21 C 20.104569 21 21 20.104569 21 19 L 21 6.5 C 21 6 20.829062 5.5704687 20.539062 5.2304688 L 19.150391 3.5507812 C 18.880391 3.2107813 18.47 3 18 3 L 6 3 z M 5.9296875 4 L 17.929688 4 L 18.869141 5 L 5.1191406 5 L 5.9296875 4 z M 11.996094 8.1542969 C 12.639775 8.1542969 13.162109 8.6618926 13.162109 9.2890625 C 13.162109 9.9162255 12.639775 10.425781 11.996094 10.425781 C 11.352414 10.425781 10.830078 9.9162255 10.830078 9.2890625 C 10.830078 8.6618926 11.352414 8.1542969 11.996094 8.1542969 z M 11.996094 11.398438 C 12.639775 11.398438 13.162109 11.906033 13.162109 12.533203 C 13.162109 13.160373 12.639775 13.669922 11.996094 13.669922 C 11.352414 13.669922 10.830078 13.160373 10.830078 12.533203 C 10.830078 11.906033 11.352414 11.398438 11.996094 11.398438 z M 8.7070312 13.128906 C 8.8880159 13.128906 9.0688404 13.195269 9.2070312 13.330078 L 12 16.333984 L 14.792969 13.330078 C 15.069358 13.060459 15.516907 13.060459 15.792969 13.330078 C 16.069011 13.599703 16.069011 14.037017 15.792969 14.306641 L 12.544922 17.800781 C 12.395408 17.946401 12.195465 18.010047 12 17.998047 C 11.804197 18.010053 11.604604 17.946467 11.455078 17.800781 L 8.2070312 14.306641 C 7.9306435 14.037017 7.9306434 13.599703 8.2070312 13.330078 C 8.3452221 13.195269 8.5260466 13.128906 8.7070312 13.128906 z "
     id="path4" />
</svg>

<svg xmlns="http://www.w3.org/2000/svg" viewBox="0 0 24 24">
  <path fill="#bebebe" d="M6 3c-.47 0-.88.21-1.16.55L3.46 5.23C3.17 5.57 3 6 3 6.5V19a2 2 0 0 0 2 2h14a2 2 0 0 0 2-2V6.5c0-.5-.17-.93-.46-1.27l-1.39-1.68C18.88 3.21 18.47 3 18 3H6zm-.07 1h12l.94 1H5.12l.81-1zm6.066 4.154c.644 0 1.166.508 1.166 1.135s-.522 1.137-1.166 1.137c-.644 0-1.166-.51-1.166-1.137s.522-1.135 1.166-1.135zm0 3.244c.644 0 1.166.508 1.166 1.135s-.522 1.137-1.166 1.137c-.644 0-1.166-.51-1.166-1.137s.522-1.135 1.166-1.135zm-3.289 1.73c.181 0 .362.067.5.202L12 16.334l2.793-3.004a.72.72 0 0 1 1 0 .68.68 0 0 1 0 .977L12.545 17.8a.714.714 0 0 1-.545.197.713.713 0 0 1-.545-.197l-3.248-3.494a.679.679 0 0 1 0-.977.713.713 0 0 1 .5-.201z"/>
</svg>
